packages/assets/static/images/icons/car.svg

<svg width="24" height="24" viewBox="0 0 24 24" xmlns="http://www.w3.org/2000/svg">
<path d="M22.5 10.125H21.4875L18.8831 4.26562C18.7653 4.00053 18.5731 3.77529 18.3298 3.61722C18.0865 3.45914 17.8026 3.375 17.5125 3.375H6.4875C6.19738 3.375 5.91349 3.45914 5.67022 3.61722C5.42695 3.77529 5.23474 4.00053 5.11688 4.26562L2.5125 10.125H1.5C1.30109 10.125 1.11032 10.204 0.96967 10.3447C0.829018 10.4853 0.75 10.6761 0.75 10.875C0.75 11.0739 0.829018 11.2647 0.96967 11.4053C1.11032 11.546 1.30109 11.625 1.5 11.625H2.25V19.125C2.25 19.5228 2.40804 19.9044 2.68934 20.1857C2.97064 20.467 3.35218 20.625 3.75 20.625H6C6.39782 20.625 6.77936 20.467 7.06066 20.1857C7.34196 19.9044 7.5 19.5228 7.5 19.125V17.625H16.5V19.125C16.5 19.5228 16.658 19.9044 16.9393 20.1857C17.2206 20.467 17.6022 20.625 18 20.625H20.25C20.6478 20.625 21.0294 20.467 21.3107 20.1857C21.592 19.9044 21.75 19.5228 21.75 19.125V11.625H22.5C22.6989 11.625 22.8897 11.546 23.0303 11.4053C23.171 11.2647 23.25 11.0739 23.25 10.875C23.25 10.6761 23.171 10.4853 23.0303 10.3447C22.8897 10.204 22.6989 10.125 22.5 10.125ZM6.4875 4.875H17.5125L19.8459 10.125H4.15406L6.4875 4.875ZM6 19.125H3.75V17.625H6V19.125ZM18 19.125V17.625H20.25V19.125H18ZM20.25 16.125H3.75V11.625H20.25V16.125ZM5.25 13.875C5.25 13.6761 5.32902 13.4853 5.46967 13.3447C5.61032 13.204 5.80109 13.125 6 13.125H7.5C7.69891 13.125 7.88968 13.204 8.03033 13.3447C8.17098 13.4853 8.25 13.6761 8.25 13.875C8.25 14.0739 8.17098 14.2647 8.03033 14.4053C7.88968 14.546 7.69891 14.625 7.5 14.625H6C5.80109 14.625 5.61032 14.546 5.46967 14.4053C5.32902 14.2647 5.25 14.0739 5.25 13.875ZM15.75 13.875C15.75 13.6761 15.829 13.4853 15.9697 13.3447C16.1103 13.204 16.3011 13.125 16.5 13.125H18C18.1989 13.125 18.3897 13.204 18.5303 13.3447C18.671 13.4853 18.75 13.6761 18.75 13.875C18.75 14.0739 18.671 14.2647 18.5303 14.4053C18.3897 14.546 18.1989 14.625 18 14.625H16.5C16.3011 14.625 16.1103 14.546 15.9697 14.4053C15.829 14.2647 15.75 14.0739 15.75 13.875Z"/>
</svg>

<svg viewBox="0 0 24 24" xmlns="http://www.w3.org/2000/svg" aria-hidden="true" fill="currentColor"><path d="M22.5 10.125h-1.012l-2.605-5.86a1.5 1.5 0 0 0-1.37-.89H6.486a1.5 1.5 0 0 0-1.37.89l-2.604 5.86H1.5a.75.75 0 1 0 0 1.5h.75v7.5a1.5 1.5 0 0 0 1.5 1.5H6a1.5 1.5 0 0 0 1.5-1.5v-1.5h9v1.5a1.5 1.5 0 0 0 1.5 1.5h2.25a1.5 1.5 0 0 0 1.5-1.5v-7.5h.75a.75.75 0 1 0 0-1.5M6.488 4.875h11.025l2.333 5.25H4.154zM6 19.125H3.75v-1.5H6zm12 0v-1.5h2.25v1.5zm2.25-3H3.75v-4.5h16.5zm-15-2.25a.75.75 0 0 1 .75-.75h1.5a.75.75 0 1 1 0 1.5H6a.75.75 0 0 1-.75-.75m10.5 0a.75.75 0 0 1 .75-.75H18a.75.75 0 1 1 0 1.5h-1.5a.75.75 0 0 1-.75-.75"/></svg>
